build/img/icon-category/icon-category-4.svg

<svg width="28" height="32" viewBox="0 0 28 32" fill="none" xmlns="http://www.w3.org/2000/svg">
<path d="M14.0005 29.0909V30.4" stroke="#2C8ECC" stroke-width="2" stroke-miterlimit="10" stroke-linecap="square"/>
<path d="M8.64795 25.1636V26.4727" stroke="#2C8ECC" stroke-width="2" stroke-miterlimit="10" stroke-linecap="square"/>
<path d="M19.353 25.1636V26.4727" stroke="#2C8ECC" stroke-width="2" stroke-miterlimit="10" stroke-linecap="square"/>
<path d="M24.037 19.9273H3.9643C2.89376 19.9273 1.95703 19.0109 1.95703 17.9637C1.95703 16.9164 2.89376 16 3.9643 16H24.037C25.1076 16 26.0443 16.9164 26.0443 17.9637C26.0443 19.0109 25.1076 19.9273 24.037 19.9273Z" stroke="#2C8ECC" stroke-width="2" stroke-miterlimit="10" stroke-linecap="square"/>
<path d="M14.0005 1.60001V5.52728" stroke="#2C8ECC" stroke-width="2" stroke-miterlimit="10" stroke-linecap="square"/>
<path d="M4.6333 16V14.6909C4.6333 9.58543 8.78166 5.52725 14.0006 5.52725C19.2195 5.52725 23.3678 9.58543 23.3678 14.6909V16" stroke="#2C8ECC" stroke-width="2" stroke-miterlimit="10" stroke-linecap="square"/>
</svg>

<svg width="28" height="32" fill="none" xmlns="http://www.w3.org/2000/svg"><path d="M14 29.09v1.31m-5.352-5.236v1.309m10.705-1.309v1.309m4.684-6.546H3.964c-1.07 0-2.007-.916-2.007-1.963 0-1.048.937-1.964 2.007-1.964h20.073c1.07 0 2.007.916 2.007 1.964 0 1.047-.936 1.963-2.007 1.963zM14 1.6v3.927" stroke="#2C8ECC" stroke-width="2" stroke-miterlimit="10" stroke-linecap="square"/><path d="M4.633 16v-1.31c0-5.105 4.149-9.163 9.368-9.163s9.367 4.058 9.367 9.164V16" stroke="#2C8ECC" stroke-width="2" stroke-miterlimit="10" stroke-linecap="square"/></svg>
